X:1
T:Hush every breeze
T:Hush every breeze
T:James Hook
C:James Hook
L:1/8
M:2/4
K:C
V:1 treble 
V:1
"^Andantino" e2 e>e | e3 g | (fe) (dc) |{c} d3 G | e2 e2 | eg c'2 | (e3/2{fede}f) (d3/2{edcd}e) | %7
 c3 c | (c B2) d | (d c2) e | (d/e/f/e/) (g/f/e/d/) |{^d} e3 c | (c B2) d | dc g2 | (fd) (ec) | %15
 !fermata!g4{!fermata!^f!fermata!=f} | e2 e>e | e3 g |{g} (fe){e} (dc) |{c} d3 G | e2 e2 | eg c'2 | %22
 (e>f) (d>e) | c3 z || %24

